mwg/billing/visa.svg

<?xml version="1.0" ?><svg height="100px" version="1.1" viewBox="0 0 160 100" width="160px" xmlns="http://www.w3.org/2000/svg" xmlns:sketch="http://www.bohemiancoding.com/sketch/ns" xmlns:xlink="http://www.w3.org/1999/xlink"><title/><defs/><g fill="none" fill-rule="evenodd" id="Page-1" stroke="none" stroke-width="1"><g id="Visa"><rect d="M0,9 L0,89 L160,89 L160,9 L0,9 Z M0,9" fill="#F6F6F6" height="80" id="Rectangle-20" width="160" x="0" y="9"/><path d="M148,1.01146687e-06 C140,1.76644588e-06 55.3007812,-1.60318373e-06 8,1.01146687e-06 C4,1.23257532e-06 -1.27897692e-13,4.00000101 7.10542736e-14,8.00000101 L7.10542736e-14,20.000001 L160,20.000001 C160,20.000001 159.999998,38.5719411 160,12.000001 C160,4.00000101 156,1.01146687e-06 148,1.01146687e-06 Z M148,1.01146687e-06" fill="#265697" id="Rectangle-1"/><path d="M0,80 C0,80 9.66373104e-07,80.000001 0,88.0000005 C-4.6283987e-07,95.9999999 4,99.9999997 12,99.9999997 C56.6232096,99.9999997 140,100 148,99.9999997 C156,99.9999997 160,95.9999999 160,88.0000005 L160,80 L0,80 Z M0,80" fill="#D97B16" id="Rectangle-1"/><path d="M111.614545,29.7821084 C109.372,28.9224828 105.858424,28 101.470273,28 C90.2863939,28 82.4084242,33.7551133 82.3411818,42.0028374 C82.2781818,48.0997635 87.9653636,51.5007685 92.258697,53.5306207 C96.6644545,55.6103251 98.1454848,56.9368276 98.1242727,58.793931 C98.0964848,61.6381084 94.6060303,62.9375172 91.3529394,62.9375172 C86.8226667,62.9375172 84.4159394,62.2944236 80.6987273,60.7102069 L79.2401818,60.0359015 L77.6516061,69.5344828 C80.2950606,70.718798 85.1838182,71.7451034 90.2596667,71.7982069 C102.157333,71.7982069 109.881091,66.109202 109.968909,57.3016158 C110.011545,52.4746207 106.995818,48.8013793 100.466091,45.7731823 C96.5098182,43.8103054 94.0869697,42.5004926 94.1126364,40.5129064 C94.1126364,38.7492217 96.1634242,36.8632906 100.594424,36.8632906 C104.295727,36.8045517 106.976727,37.6292808 109.065909,38.4889064 L110.080061,38.9785419 L111.614545,29.7821084" fill="#265697" id="Shape"/><path d="M140.638455,28.7779113 L131.892485,28.7779113 C129.183273,28.7779113 127.155606,29.5334975 125.965818,32.2966108 L109.156061,71.1819901 L121.041424,71.1819901 C121.041424,71.1819901 122.984667,65.9535764 123.424182,64.8056749 C124.723,64.8056749 136.269182,64.8238818 137.919697,64.8238818 C138.258455,66.3092611 139.296788,71.1819901 139.296788,71.1819901 L149.799333,71.1819901 L140.638455,28.7779113 L140.638455,28.7779113 Z M126.681515,56.1268374 C127.617606,53.6821281 131.191,44.2654778 131.191,44.2654778 C131.124182,44.3784039 132.120091,41.8088473 132.691758,40.2157438 L133.456667,43.8740296 C133.456667,43.8740296 135.623909,54.0024828 136.077,56.1264039 L126.681515,56.1268374 L126.681515,56.1268374 L126.681515,56.1268374 L126.681515,56.1268374 Z M126.681515,56.1268374" fill="#265697" id="Shape"/><path d="M59.2498788,71.1685517 L66.3264545,28.7373793 L77.6450303,28.7373793 L70.5635758,71.1685517 L59.2498788,71.1685517 Z M59.2498788,71.1685517" fill="#265697" id="Shape"/><path d="M49.7568182,28.7683744 L38.6756061,57.7032512 L37.4949394,51.8230739 C35.4320606,45.0446897 29.0047879,37.7005911 21.8193939,34.0238818 L31.9517879,71.1319212 L43.9270909,71.1180493 L61.7461212,28.7683744 L49.7568182,28.7683744" fill="#265697" id="Shape"/><path d="M28.3955758,28.7421478 L10.1444545,28.7421478 L10,29.6249655 C24.1991818,33.1371626 33.5946667,41.6248276 37.4947273,51.8230739 L33.5261515,32.3243547 C32.841,29.6375369 30.8538485,28.8357833 28.3955758,28.7421478" fill="#D97B16" id="Shape"/></g></g></svg>

<svg xmlns="http://www.w3.org/2000/svg" viewBox="0 0 160 100"><title>logovisa</title><rect y="9" width="160" height="80" fill="#f6f6f6"/><path d="M148,0H8C4,0,0,4,0,8V20H160V12Q160,0,148,0Z" fill="#265697"/><path d="M0,80v8q0,12,12,12H148q12,0,12-12V80Z" fill="#d97b16"/><path d="M111.61,29.78A28.63,28.63,0,0,0,101.47,28c-11.18,0-19.06,5.76-19.13,14-.06,6.1,5.63,9.5,9.92,11.53s5.89,3.41,5.86,5.26c0,2.85-3.51,4.15-6.77,4.15A23.34,23.34,0,0,1,80.7,60.71L79.24,60l-1.59,9.49A35,35,0,0,0,90.26,71.8c11.9,0,19.62-5.69,19.71-14.5,0-4.83-3-8.5-9.5-11.53-4-2-6.38-3.27-6.36-5.26,0-1.76,2-3.65,6.48-3.65a20.48,20.48,0,0,1,8.48,1.63l1,.49,1.53-9.2" fill="#265697"/><path d="M140.64,28.78h-8.75c-2.71,0-4.73.75-5.92,3.52L109.16,71.18H121S123,66,123.42,64.81h14.5c.34,1.49,1.38,6.36,1.38,6.36h10.5l-9.16-42.4Zm-14,27.35c.94-2.45,4.51-11.86,4.51-11.86s.93-2.46,1.5-4.05l.77,3.65s2.16,10.13,2.62,12.26Z" fill="#265697"/><path d="M59.25,71.17l7.08-42.43H77.65L70.56,71.17Z" fill="#265697"/><path d="M49.76,28.77,38.68,57.7l-1.19-5.88C35.43,45,29,37.7,21.82,34L32,71.13h12L61.75,28.77h-12" fill="#265697"/><path d="M28.4,28.74H10.14l-.14.88c14.2,3.52,23.59,12,27.49,22.2l-4-19.5c-.69-2.68-2.68-3.48-5.13-3.58" fill="#d97b16"/></svg>
